1-js/09-classes/03-static-properties-methods/3-class-extend-object/rabbit-extends-object.svg

<?xml version="1.0" encoding="UTF-8"?>
<svg width="458px" height="344px" viewBox="0 0 458 344" version="1.1" xmlns="http://www.w3.org/2000/svg" xmlns:xlink="http://www.w3.org/1999/xlink">
    <!-- Generator: sketchtool 55.2 (78181) - https://sketchapp.com -->
    <title>rabbit-extends-object.svg</title>
    <desc>Created with sketchtool.</desc>
    <g id="inheritance" stroke="none" stroke-width="1" fill="none" fill-rule="evenodd">
        <g id="rabbit-extends-object.svg">
            <path d="M228,61 L228,129 L406,129 L406,61 L228,61 Z" id="Rectangle-1" stroke="#E8C48E" stroke-width="2" fill="#FFF9EB"></path>
            <text id="call:-function-bind:" font-family="PTMono-Regular, PT Mono" font-size="14" font-weight="normal" fill="#8A704D">
                <tspan x="238" y="80">call: function</tspan>
                <tspan x="238" y="95">bind: function</tspan>
                <tspan x="238" y="110">...</tspan>
            </text>
            <rect id="Rectangle-1-Copy" stroke="#E8C48E" stroke-width="2" fill="#FFF9EB" x="228" y="303" width="178" height="28"></rect>
            <text id="Function.prototype" font-family="PTMono-Regular, PT Mono" font-size="14" font-weight="normal" fill="#8A704D">
                <tspan x="227" y="53">Function.prototype</tspan>
            </text>
            <path d="M228,202 L228,230 L406,230 L406,202 L228,202 Z" id="Rectangle-1-Copy-4" stroke="#E8C48E" stroke-width="2" fill="#FFF9EB"></path>
            <text id="constructor" font-family="PTMono-Regular, PT Mono" font-size="14" font-weight="normal" fill="#8A704D">
                <tspan x="238" y="220">constructor</tspan>
            </text>
            <text id="Object" font-family="PTMono-Regular, PT Mono" font-size="14" font-weight="normal" fill="#8A704D">
                <tspan x="227" y="194">Object</tspan>
            </text>
            <text id="Rabbit" font-family="PTMono-Regular, PT Mono" font-size="14" font-weight="normal" fill="#8A704D">
                <tspan x="233" y="292">Rabbit</tspan>
            </text>
            <path id="Line" d="M317.5,157.5 L317.5,185.5 L315.5,185.5 L315.5,157.5 L309.5,157.5 L316.5,143.5 L323.5,157.5 L317.5,157.5 Z" fill="#EE6B47" fill-rule="nonzero"></path>
            <text id="[[Prototype]]" font-family="PTMono-Regular, PT Mono" font-size="14" font-weight="normal" fill="#8A704D">
                <tspan x="326" y="167">[[Prototype]]</tspan>
            </text>
            <path id="Line-Copy-3" d="M317.5,261.5 L317.5,289.5 L315.5,289.5 L315.5,261.5 L309.5,261.5 L316.5,247.5 L323.5,261.5 L317.5,261.5 Z" fill="#EE6B47" fill-rule="nonzero"></path>
            <text id="[[Prototype]]-Copy" font-family="PTMono-Regular, PT Mono" font-size="14" font-weight="normal" fill="#8A704D">
                <tspan x="326" y="271">[[Prototype]]</tspan>
            </text>
            <text id="constructor-copy" font-family="PTMono-Regular, PT Mono" font-size="14" font-weight="normal" fill="#8A704D">
                <tspan x="236" y="321">constructor</tspan>
            </text>
            <rect id="Rectangle-1-Copy-3" stroke="#E8C48E" stroke-width="2" fill="#FFF9EB" x="8" y="61" width="178" height="68"></rect>
            <text id="call:-function-bind:-copy" font-family="PTMono-Regular, PT Mono" font-size="14" font-weight="normal" fill="#8A704D">
                <tspan x="18" y="80">call: function</tspan>
                <tspan x="18" y="95">bind: function</tspan>
                <tspan x="18" y="110">...</tspan>
            </text>
            <rect id="Rectangle-1-Copy-2" stroke="#E8C48E" stroke-width="2" fill="#FFF9EB" x="8" y="201" width="178" height="28"></rect>
            <text id="Function.prototype-Copy" font-family="PTMono-Regular, PT Mono" font-size="14" font-weight="normal" fill="#8A704D">
                <tspan x="7" y="53">Function.prototype</tspan>
            </text>
            <text id="Rabbit-Copy" font-family="PTMono-Regular, PT Mono" font-size="14" font-weight="normal" fill="#8A704D">
                <tspan x="13" y="190">Rabbit</tspan>
            </text>
            <path id="Line-Copy-4" d="M97.5,159.5 L97.5,187.5 L95.5,187.5 L95.5,159.5 L89.5,159.5 L96.5,145.5 L103.5,159.5 L97.5,159.5 Z" fill="#EE6B47" fill-rule="nonzero"></path>
            <text id="[[Prototype]]-Copy-2" font-family="PTMono-Regular, PT Mono" font-size="14" font-weight="normal" fill="#8A704D">
                <tspan x="106" y="169">[[Prototype]]</tspan>
            </text>
            <text id="constructor-copy-2" font-family="PTMono-Regular, PT Mono" font-size="14" font-weight="normal" fill="#8A704D">
                <tspan x="16" y="219">constructor</tspan>
            </text>
            <text id="class-Rabbit" font-family="PTMono-Regular, PT Mono" font-size="14" font-weight="normal" fill="#EE6B47">
                <tspan x="14" y="18">class Rabbit</tspan>
            </text>
            <text id="class-Rabbit-extends" font-family="PTMono-Regular, PT Mono" font-size="14" font-weight="normal" fill="#EE6B47">
                <tspan x="224" y="18">class Rabbit extends Object</tspan>
            </text>
        </g>
    </g>
</svg>

<svg xmlns="http://www.w3.org/2000/svg" width="458" height="344" viewBox="0 0 458 344"><defs><style>@import url(https://fonts.googleapis.com/css?family=Open+Sans:bold,italic,bolditalic%7CPT+Mono);@font-face{font-family:&apos;PT Mono&apos;;font-weight:700;font-style:normal;src:local(&apos;PT MonoBold&apos;),url(/font/PTMonoBold.woff2) format(&apos;woff2&apos;),url(/font/PTMonoBold.woff) format(&apos;woff&apos;),url(/font/PTMonoBold.ttf) format(&apos;truetype&apos;)}</style></defs><g id="inheritance" fill="none" fill-rule="evenodd" stroke="none" stroke-width="1"><g id="rabbit-extends-object.svg"><path id="Rectangle-1" fill="#FBF2EC" stroke="#DBAF88" stroke-width="2" d="M406 61v68H228V61h178z"/><text id="call:-function-bind:" fill="#AF6E24" font-family="PTMono-Regular, PT Mono" font-size="14" font-weight="normal"><tspan x="238" y="80">call: function</tspan> <tspan x="238" y="95">bind: function</tspan> <tspan x="238" y="110">...</tspan></text><path id="Rectangle-1-Copy" fill="#FBF2EC" stroke="#DBAF88" stroke-width="2" d="M228 303h178v28H228z"/><text id="Function.prototype" fill="#AF6E24" font-family="PTMono-Regular, PT Mono" font-size="14" font-weight="normal"><tspan x="227" y="53">Function.prototype</tspan></text><path id="Rectangle-1-Copy-4" fill="#FBF2EC" stroke="#DBAF88" stroke-width="2" d="M406 202v28H228v-28h178z"/><text id="constructor" fill="#AF6E24" font-family="PTMono-Regular, PT Mono" font-size="14" font-weight="normal"><tspan x="238" y="220">constructor</tspan></text><text id="Object" fill="#AF6E24" font-family="PTMono-Regular, PT Mono" font-size="14" font-weight="normal"><tspan x="227" y="194">Object</tspan></text><text id="Rabbit" fill="#AF6E24" font-family="PTMono-Regular, PT Mono" font-size="14" font-weight="normal"><tspan x="233" y="292">Rabbit</tspan></text><path id="Line" fill="#C06334" fill-rule="nonzero" d="M316.5 143.5l7 14h-6v28h-2v-28h-6l7-14z"/><text id="[[Prototype]]" fill="#AF6E24" font-family="PTMono-Regular, PT Mono" font-size="14" font-weight="normal"><tspan x="326" y="167">[[Prototype]]</tspan></text><path id="Line-Copy-3" fill="#C06334" fill-rule="nonzero" d="M316.5 247.5l7 14h-6v28h-2v-28h-6l7-14z"/><text id="[[Prototype]]-Copy" fill="#AF6E24" font-family="PTMono-Regular, PT Mono" font-size="14" font-weight="normal"><tspan x="326" y="271">[[Prototype]]</tspan></text><text id="constructor-copy" fill="#AF6E24" font-family="PTMono-Regular, PT Mono" font-size="14" font-weight="normal"><tspan x="236" y="321">constructor</tspan></text><path id="Rectangle-1-Copy-3" fill="#FBF2EC" stroke="#DBAF88" stroke-width="2" d="M8 61h178v68H8z"/><text id="call:-function-bind:-copy" fill="#AF6E24" font-family="PTMono-Regular, PT Mono" font-size="14" font-weight="normal"><tspan x="18" y="80">call: function</tspan> <tspan x="18" y="95">bind: function</tspan> <tspan x="18" y="110">...</tspan></text><path id="Rectangle-1-Copy-2" fill="#FBF2EC" stroke="#DBAF88" stroke-width="2" d="M8 201h178v28H8z"/><text id="Function.prototype-Copy" fill="#AF6E24" font-family="PTMono-Regular, PT Mono" font-size="14" font-weight="normal"><tspan x="7" y="53">Function.prototype</tspan></text><text id="Rabbit-Copy" fill="#AF6E24" font-family="PTMono-Regular, PT Mono" font-size="14" font-weight="normal"><tspan x="13" y="190">Rabbit</tspan></text><path id="Line-Copy-4" fill="#C06334" fill-rule="nonzero" d="M96.5 145.5l7 14h-6v28h-2v-28h-6l7-14z"/><text id="[[Prototype]]-Copy-2" fill="#AF6E24" font-family="PTMono-Regular, PT Mono" font-size="14" font-weight="normal"><tspan x="106" y="169">[[Prototype]]</tspan></text><text id="constructor-copy-2" fill="#AF6E24" font-family="PTMono-Regular, PT Mono" font-size="14" font-weight="normal"><tspan x="16" y="219">constructor</tspan></text><text id="class-Rabbit" fill="#C06334" font-family="PTMono-Regular, PT Mono" font-size="14" font-weight="normal"><tspan x="14" y="18">class Rabbit</tspan></text><text id="class-Rabbit-extends" fill="#C06334" font-family="PTMono-Regular, PT Mono" font-size="14" font-weight="normal"><tspan x="224" y="18">class Rabbit extends Object</tspan></text></g></g></svg>
